X:3
T:Soldier's Joy
M:4/4
L:1/4
Z:abc-transcription Josh Larios <hades@elsewhere.org>, 2014.01.13
S:Sarah Comer
K:D
|: (F/G/) || "D"A F D F | A d d (F/G/) | A F D F | "A"G E E (F/G/) |
"D"A F D F | "(G)"A d d e | "D"f d "A"e c | "D"d d d :|
|: e || "D"f g a f | "G"e f g> e | "D"f g a f | "A"e c A> e |
"D"f g a f | "G"e f g> e | "D"f d "A"e c | "D"d d d :|

